symbols/web/center_focus_strong/materialsymbolsrounded/center_focus_strong_wght300grad200fill1_20px.svg

<svg xmlns="http://www.w3.org/2000/svg" height="20" width="20"><path d="M10 14.375q-1.833 0-3.104-1.281Q5.625 11.812 5.625 10q0-1.833 1.281-3.115Q8.188 5.604 10 5.604q1.833 0 3.115 1.281Q14.396 8.167 14.396 10q0 1.833-1.281 3.104-1.282 1.271-3.115 1.271ZM3.188 7.5q-.376 0-.657-.281t-.281-.657V4.375q0-.875.625-1.5t1.5-.625h2.187q.376 0 .657.281t.281.657q0 .374-.281.656-.281.281-.657.281H4.375q-.104 0-.177.073t-.073.177v2.187q0 .376-.281.657-.282.281-.656.281Zm1.187 10.25q-.875 0-1.5-.625t-.625-1.5v-2.187q0-.376.281-.657t.657-.281q.374 0 .656.281.281.281.281.657v2.187q0 .104.073.177t.177.073h2.187q.376 0 .657.281.281.282.281.656 0 .376-.281.657t-.657.281Zm9.063 0q-.376 0-.657-.281t-.281-.657q0-.374.281-.656.281-.281.657-.281h2.187q.104 0 .177-.073t.073-.177v-2.187q0-.376.281-.657.282-.281.656-.281.376 0 .657.281t.281.657v2.187q0 .875-.625 1.5t-1.5.625ZM16.812 7.5q-.374 0-.656-.281-.281-.281-.281-.657V4.375q0-.104-.073-.177t-.177-.073h-2.187q-.376 0-.657-.281-.281-.282-.281-.656 0-.376.281-.657t.657-.281h2.187q.875 0 1.5.625t.625 1.5v2.187q0 .376-.281.657t-.657.281Z"/></svg>

<svg xmlns="http://www.w3.org/2000/svg" height="20" width="20"><path d="M10 14.375Q8.167 14.375 6.896 13.094Q5.625 11.812 5.625 10Q5.625 8.167 6.906 6.885Q8.188 5.604 10 5.604Q11.833 5.604 13.115 6.885Q14.396 8.167 14.396 10Q14.396 11.833 13.115 13.104Q11.833 14.375 10 14.375ZM3.188 7.5Q2.812 7.5 2.531 7.219Q2.25 6.938 2.25 6.562V4.375Q2.25 3.5 2.875 2.875Q3.5 2.25 4.375 2.25H6.562Q6.938 2.25 7.219 2.531Q7.5 2.812 7.5 3.188Q7.5 3.562 7.219 3.844Q6.938 4.125 6.562 4.125H4.375Q4.271 4.125 4.198 4.198Q4.125 4.271 4.125 4.375V6.562Q4.125 6.938 3.844 7.219Q3.562 7.5 3.188 7.5ZM4.375 17.75Q3.5 17.75 2.875 17.125Q2.25 16.5 2.25 15.625V13.438Q2.25 13.062 2.531 12.781Q2.812 12.5 3.188 12.5Q3.562 12.5 3.844 12.781Q4.125 13.062 4.125 13.438V15.625Q4.125 15.729 4.198 15.802Q4.271 15.875 4.375 15.875H6.562Q6.938 15.875 7.219 16.156Q7.5 16.438 7.5 16.812Q7.5 17.188 7.219 17.469Q6.938 17.75 6.562 17.75ZM13.438 17.75Q13.062 17.75 12.781 17.469Q12.5 17.188 12.5 16.812Q12.5 16.438 12.781 16.156Q13.062 15.875 13.438 15.875H15.625Q15.729 15.875 15.802 15.802Q15.875 15.729 15.875 15.625V13.438Q15.875 13.062 16.156 12.781Q16.438 12.5 16.812 12.5Q17.188 12.5 17.469 12.781Q17.75 13.062 17.75 13.438V15.625Q17.75 16.5 17.125 17.125Q16.5 17.75 15.625 17.75ZM16.812 7.5Q16.438 7.5 16.156 7.219Q15.875 6.938 15.875 6.562V4.375Q15.875 4.271 15.802 4.198Q15.729 4.125 15.625 4.125H13.438Q13.062 4.125 12.781 3.844Q12.5 3.562 12.5 3.188Q12.5 2.812 12.781 2.531Q13.062 2.25 13.438 2.25H15.625Q16.5 2.25 17.125 2.875Q17.75 3.5 17.75 4.375V6.562Q17.75 6.938 17.469 7.219Q17.188 7.5 16.812 7.5Z"/></svg>
